X:1
T:Title
%%score { ( 1 2 ) | 3 }
L:1/8
Q:1/4=86
M:2/4
K:Ab
V:1 treble nm="Grand Piano"
V:2 treble 
V:3 bass 
V:1
 AG z C | GF z C | AG BA | d4 | AG z C | GF z C | Bc BF | B4[K:bass] | AG z C | GF z C | AA BA | %11
w: DeLoss~Smith * *|||||||||||
 d4 | dd cB | ec BA | cE FG | A4 | E2 F2 | z2 e2 | cB AF | G4 | F2 G2 | z2 f2 | eB =AB | c4 | %24
w: |||||||||||||
 E2 F2 | z2 e2 | ec BA | d4 | AA BA | cc ec | A2 B2 | A4[K:bass] |] %32
w: ||||||||
V:2
 z2 F2 | z2 E2 | x4 | z E/F/ G/F/E | z2 F2 | z2 E2 | x4 | z[K:bass] F, G,E, | z2 F2 | z2 E2 | x4 | %11
 z2 .D2 | x4 | x4 | x4 | z C C2 | z C z C | GA z C | x4 | z [G,B,D] z [G,B,D] | z D z D | Bd z D | %22
 x4 | z [A,C] z [A,C] | z C z C | GA z C | x4 | z D DD | x4 | x4 | z =D z _D | z[K:bass] F, E,2 |] %32
V:3
 A,,[E,C] E,,E, | A,,[A,C] E,,A, | A,,[E,C] E,,C | A,,E,/F,/ G,/F,/E, | A,,[E,A,C] E,,[E,A,] | %5
 A,,[E,A,C] C,[E,A,] | B,,[F,A,B,=D] =D,[F,A,B,D] | [E,,E,]F,, G,,E,, | A,,[E,A,C] E,,[E,A,] | %9
 A,,[E,A,C] E,,[E,A,] | A,,[E,A,C] C,[E,A,C] | D,F, A,F, | D,F, [A,D]F, | A,,E, [A,C]E, | %14
 E,,C [_C=D][B,_D] | A,,[E,A,] [E,A,]2 | A,,[E,A,] E,,[E,A,] | A,,[E,A,C] E,,[E,A,] | %18
 A,,[E,A,C] C,[E,A,C] | B,,E, E,,E, | B,,[E,G,B,] E,,[E,G,B,] | G,,[E,G,B,D] E,,[E,G,B,] | %22
 G,,[E,G,B,D] E,,[E,G,B,D] | A,,E, E,,E, | A,,[E,A,] E,,[E,A,] | A,,[E,A,C] E,,[E,A,] | %26
 A,,[A,C] C,[E,A,C] | C,[F,A,] [F,A,][F,A,] | D,[F,A,D] [F,A,D][F,A,D] | A,,[E,A,C] C,[E,A,C] | %30
 B,,[F,A,B,] [E,,D,][E,G,B,] | A,,4 |] %32

